toonz/sources/toonz/Resources/framenext_over.svg

<?xml version="1.0" encoding="utf-8"?>
<!-- Generator: Adobe Illustrator 21.0.2, SVG Export Plug-In . SVG Version: 6.00 Build 0)  -->
<svg version="1.1"
	 id="svg2" inkscape:version="0.91 r13725" sodipodi:docname="framenext_over.svg" xmlns:cc="http://creativecommons.org/ns#" xmlns:dc="http://purl.org/dc/elements/1.1/" xmlns:inkscape="http://www.inkscape.org/namespaces/inkscape" xmlns:rdf="http://www.w3.org/1999/02/22-rdf-syntax-ns#" xmlns:sodipodi="http://sodipodi.sourceforge.net/DTD/sodipodi-0.dtd" xmlns:svg="http://www.w3.org/2000/svg"
	 xmlns="http://www.w3.org/2000/svg" xmlns:xlink="http://www.w3.org/1999/xlink" x="0px" y="0px" viewBox="0 0 17 17"
	 style="enable-background:new 0 0 17 17;" xml:space="preserve">
<style type="text/css">
	.st0{fill:#FFFFFF;}
	.st1{fill:#404040;}
	.st2{fill:none;stroke:#404040;stroke-width:2;stroke-linecap:square;stroke-miterlimit:3;}
</style>
<sodipodi:namedview  bordercolor="#666666" borderopacity="1" gridtolerance="10" guidetolerance="10" id="namedview17" inkscape:current-layer="svg2" inkscape:cx="10.5" inkscape:cy="8.5" inkscape:pageopacity="0" inkscape:pageshadow="2" inkscape:window-height="480" inkscape:window-maximized="0" inkscape:window-width="796" inkscape:window-x="0" inkscape:window-y="0" inkscape:zoom="13.882353" objecttolerance="10" pagecolor="#ffffff" showgrid="false">
	</sodipodi:namedview>
<g>
	<g id="g7">
		<rect id="rect9" x="1" y="3" class="st0" width="2" height="11"/>
		<path id="path11" inkscape:connector-curvature="0" class="st1" d="M0,15h4V2H0V15z M3,3v11H1V3H3z"/>
	</g>
	<path id="path13" inkscape:connector-curvature="0" class="st2" d="M15,8.5l-9-5v10L15,8.5z"/>
	<path id="path15" inkscape:connector-curvature="0" class="st0" d="M15,8.5l-9-5v10L15,8.5z"/>
</g>
</svg>

<?xml version="1.0" encoding="UTF-8" standalone="no"?><!DOCTYPE svg PUBLIC "-//W3C//DTD SVG 1.1//EN" "http://www.w3.org/Graphics/SVG/1.1/DTD/svg11.dtd"><svg width="100%" height="100%" viewBox="0 0 17 17" version="1.1" xmlns="http://www.w3.org/2000/svg" xmlns:xlink="http://www.w3.org/1999/xlink" xml:space="preserve" style="fill-rule:evenodd;clip-rule:evenodd;stroke-linecap:square;stroke-miterlimit:3;"><g><rect id="rect9" x="1" y="3" width="2" height="11" style="fill:#fff;"/><path id="path11" d="M0,15l4,0l0,-13l-4,0l0,13Zm3,-12l0,11l-2,0l0,-11l2,0Z" style="fill-opacity:0.501961;fill-rule:nonzero;"/><path id="path13" d="M15,8.5l-9,-5l0,10l9,-5Z" style="fill:none;stroke:#000;stroke-opacity:0.501961;stroke-width:2px;"/><path id="path15" d="M15,8.5l-9,-5l0,10l9,-5Z" style="fill:#fff;fill-rule:nonzero;"/></g></svg>
